client/public/assets/icons/standard/feedback.svg

<?xml version="1.0"?><svg xmlns="http://www.w3.org/2000/svg" width="100" height="100" viewBox="0 0 100 100"><path fill="#fff" d="m79.1 56.5c-0.1-0.4-0.1-0.9 0.2-1.2 1.7-3.1 2.7-6.6 2.7-10.3 0-11.6-9.9-21-22-21-5.2 0-10 1.8-13.8 4.7 12.5 2.7 21.8 13.5 21.8 26.3 0 3.6-0.7 7.1-2.1 10.2 2-0.5 3.9-1.3 5.7-2.4 0.4-0.2 0.8-0.3 1.2-0.1l6.4 2.3c1.1 0.4 2.2-0.7 1.9-1.9l-2-6.6z m-39.1-22.5c-12.1 0-22 9.4-22 21 0 3.7 1 7.2 2.8 10.3 0.2 0.4 0.3 0.8 0.2 1.2l-2.1 6.7c-0.4 1.2 0.7 2.3 1.9 1.9l6.4-2.3c0.4-0.1 0.9-0.1 1.2 0.1 3.4 2 7.3 3.1 11.6 3.1 12.1 0 22-9.4 22-21s-9.9-21-22-21z m-12 25c-2.2 0-4-1.8-4-4s1.8-4 4-4 4 1.8 4 4-1.8 4-4 4z m12 0c-2.2 0-4-1.8-4-4s1.8-4 4-4 4 1.8 4 4-1.8 4-4 4z m12 0c-2.2 0-4-1.8-4-4s1.8-4 4-4 4 1.8 4 4-1.8 4-4 4z"></path></svg>

<?xml version="1.0" encoding="utf-8"?>
<!-- Generator: Adobe Illustrator 17.1.0, SVG Export Plug-In . SVG Version: 6.00 Build 0)  -->
<!DOCTYPE svg PUBLIC "-//W3C//DTD SVG 1.1//EN" "http://www.w3.org/Graphics/SVG/1.1/DTD/svg11.dtd">
<svg version="1.1" id="Layer_1" xmlns="http://www.w3.org/2000/svg" xmlns:xlink="http://www.w3.org/1999/xlink" x="0px" y="0px" width="100" height="100"
	 viewBox="0 0 100 100" style="enable-background:new 0 0 100 100;" xml:space="preserve">

<g>
	<g>
		<path fill="#FFFFFF" d="M79.1,56.5c-0.1-0.4-0.1-0.9,0.2-1.2C81,52.2,82,48.7,82,45c0-11.6-9.9-21-22-21c-5.2,0-10,1.8-13.8,4.7
			C58.7,31.4,68,42.2,68,55c0,3.6-0.7,7.1-2.1,10.2c2-0.5,3.9-1.3,5.7-2.4c0.4-0.2,0.8-0.3,1.2-0.1l6.4,2.3c1.1,0.4,2.2-0.7,1.9-1.9
			L79.1,56.5z"/>
	</g>
	<g>
		<path fill="#FFFFFF" d="M40,34c-12.1,0-22,9.4-22,21c0,3.7,1,7.2,2.8,10.3c0.2,0.4,0.3,0.8,0.2,1.2l-2.1,6.7
			c-0.4,1.2,0.7,2.3,1.9,1.9l6.4-2.3c0.4-0.1,0.9-0.1,1.2,0.1c3.4,2,7.3,3.1,11.6,3.1c12.1,0,22-9.4,22-21C62,43.4,52.1,34,40,34z
			 M28,59c-2.2,0-4-1.8-4-4c0-2.2,1.8-4,4-4c2.2,0,4,1.8,4,4C32,57.2,30.2,59,28,59z M40,59c-2.2,0-4-1.8-4-4c0-2.2,1.8-4,4-4
			c2.2,0,4,1.8,4,4C44,57.2,42.2,59,40,59z M52,59c-2.2,0-4-1.8-4-4c0-2.2,1.8-4,4-4c2.2,0,4,1.8,4,4C56,57.2,54.2,59,52,59z"/>
	</g>
</g>
</svg>
